!!!!SEGMENT: pl-kk--kk-i-177--002_anonim--vespere-autem-sabbati.krn
!!!cenid: 16xx:1112
!!!COM: Anonim
!!!COM-rismID: pe30004985
!!!CDT:
!!!CNT:
!!!OTL: Vespere autem sabbati
!!!PDT:
!!!AGN: Sacred
!!!SMS-siglum: PL-Kk
!!!SMS-shelfmark: Kk.I.177
!!!SMS-shelfwork: 002 W
!!!SMS-variant:
!!!SMS-altvar:
!!!NIFC-rismSourceID: 1001147322
!!!NIFC-rismChildID: 1001147327
!!!NIFC-islandoraID: pl-kk:3859
!!!URL-pdf-islandora: https://repozytorium.nifc.pl/islandora/object/pl-kk%3A3859/datastream/PDF/view
!!!URL-scan: https://polish.musicsources.pl/pl/lokalizacje/galeria/rekopisy/5805 @EN{Scan on Polish Music Sources Website} @PL{Skany w portalu Dziedzictwo Muzyki Polskiej w otwartym dostępie}
!!!IIIF:
!!!ONB-nifc: UWAGA: Utwory w zbiorze: 1. Hodie Christus natus est, 2. Vespere autem sabbati
!!!AIN: 1 bass
!!!key:
**kern	**text
*Ibass	*
*I"Basso	*
*I'B.	*
*clefF4	*
*k[]	*
*B-:	*
*M2/1	*
*met(c|)	*
*lig	*
=1-	=1-
1C/	Ves-
1F\	.
*Xlig	*
=2-	=2-
1D\	-pe-
1C/	-re
=3-	=3-
1D\	au-
*lig	*
1C/	-tem
=4-	=4-
1BB/	.
*Xlig	*
*lig	*
1C/	Sab-
=5-	=5-
1D\	.
*Xlig	*
1C/	-ba-
=6-	=6-
1C/	-ti
=||-	=||-
*clefF4	*
1E\	Qu(am)
=7-	=7-
1F\	lu-
1G\	-ce-
=8-	=8-
1G\	-scit
*lig	*
1G\	in
=9-	=9-
1A\	.
*Xlig	*
1F\	pri-
=10-	=10-
1D\	-ma
!!LO:LB:g=original
1F\	Sab-
=11-	=11-
1F\	-ba-
!LO:TX:t=P:problem=kreska pseudotaktowa	!
1F\	-ti
=12-	=12-
1F\	Ve-
1F\	-nit
=13-	=13-
1F\	Ma-
1F\	-ri-
=14-	=14-
!LO:TX:t=P:problem=kreska pseudotaktowa	!
1F\	-a
1F\	Ma-
=15-	=15-
1F\	-gda-
*lig	*
1E\	-le-
=16-	=16-
1D\	.
*Xlig	*
1C/	ne
=17-	=17-
1C/	et
*lig	*
1E\	al-
=18-	=18-
1D\	.
*Xlig	*
1C/	-te-
!!LO:LB:g=original
=19-	=19-
1D\	-ra
*lig	*
1E\	Ma-
=20-	=20-
1F\	.
*Xlig	*
1E\	-ri-
=21-	=21-
1D\,	-a
1D\	Vi-
=22-	=22-
1D\	-de-
1F\	-re
=23-	=23-
1D\	Se-
1F\	-pul-
=24-	=24-
1D\	-chrum
*lig	*
1C/	Al-
=25-	=25-
1BB/	.
*Xlig	*
*lig	*
1C/	-le-
=26-	=26-
1D\	.
*Xlig	*
1D\	-lu-
=27-	=27-
1GG/	.
1C/;	-ia
==	==
*-	*-
!!!EED: Leszek Kubiak
!!!EEV: 2021-04-08
!!!ENC: Berenika Jozajtis
!!!END: 2021-03-18
!!!YEC: Copyright 2022 Narodowy Instytut Fryderyka Chopina (https://polishscores.org)
!!!YEM: License CC-BY-4.0 (https://creativecommons.org/licenses/by/4.0)
